profile_pictures/animals-2/buffalo3.svg

<svg width="64" height="64" viewBox="0 0 64 64" fill="none" xmlns="http://www.w3.org/2000/svg">
<path d="M57 26V28H52C50.594 28.0047 49.2126 27.6317 48 26.92C47.9867 25.8522 47.6887 24.8074 47.1367 23.8933C46.5847 22.9792 45.7988 22.2289 44.86 21.72C44.5862 21.5736 44.3281 21.3993 44.09 21.2C44.0042 21.1447 43.9267 21.0773 43.86 21H50C51.4305 21.0068 52.8279 20.5701 54 19.75C54.9368 20.5 55.6929 21.4513 56.2122 22.5332C56.7315 23.6151 57.0008 24.7999 57 26ZM20.14 21C20.0733 21.0773 19.9958 21.1447 19.91 21.2C19.6719 21.3993 19.4138 21.5736 19.14 21.72C18.2012 22.2289 17.4153 22.9792 16.8633 23.8933C16.3113 24.8074 16.0133 25.8522 16 26.92C14.7874 27.6317 13.406 28.0047 12 28H7V26C6.99925 24.7999 7.2685 23.6151 7.78782 22.5332C8.30713 21.4513 9.06319 20.5 10 19.75C11.1721 20.5701 12.5695 21.0068 14 21H20.14ZM44 51C44.0026 51.7882 43.8483 52.569 43.5462 53.2969C43.244 54.0248 42.8 54.6854 42.24 55.24C41.8718 55.6116 41.4546 55.9312 41 56.19C40.0911 56.725 39.0547 57.0049 38 57H26C24.9453 57.0049 23.9089 56.725 23 56.19C22.2047 55.7294 21.5259 55.0922 21.0158 54.3276C20.5058 53.563 20.1783 52.6915 20.0585 51.7803C19.9386 50.869 20.0297 49.9425 20.3248 49.072C20.6198 48.2016 21.1108 47.4106 21.76 46.76C22.1277 46.3878 22.545 46.0682 23 45.81C23.9095 45.2763 24.9455 44.9966 26 45H38C39.0545 44.9966 40.0905 45.2763 41 45.81C41.9112 46.3361 42.6681 47.0925 43.1946 48.0035C43.7212 48.9144 43.9989 49.9478 44 51Z" fill="#646467"/>
<path d="M48 26.92V34.47C47.9986 35.5684 47.6958 36.6453 47.1245 37.5834C46.5531 38.5215 45.7353 39.2848 44.76 39.79C44.4976 39.9278 44.2438 40.0814 44 40.25V51C43.9989 49.9478 43.7212 48.9144 43.1946 48.0035C42.6681 47.0926 41.9112 46.3361 41 45.81C40.0905 45.2763 39.0545 44.9966 38 45H26C24.9455 44.9966 23.9095 45.2763 23 45.81C22.5485 46.0689 22.1346 46.3886 21.77 46.76C21.2082 47.3138 20.7623 47.974 20.4584 48.7019C20.1545 49.4299 19.9987 50.2111 20 51V40.25C19.7562 40.0814 19.5024 39.9278 19.24 39.79C18.2647 39.2848 17.4469 38.5215 16.8755 37.5834C16.3042 36.6453 16.0014 35.5684 16 34.47V26.92C16.0133 25.8523 16.3113 24.8074 16.8633 23.8933C17.4153 22.9792 18.2012 22.2289 19.14 21.72C19.4138 21.5736 19.6719 21.3993 19.91 21.2C19.9958 21.1447 20.0733 21.0773 20.14 21C20.1914 20.9659 20.2384 20.9256 20.28 20.88C20.8332 20.3224 21.2701 19.6605 21.5654 18.9326C21.8607 18.2047 22.0084 17.4254 22 16.64V15C21.9897 14.8936 21.9897 14.7864 22 14.68C22.0359 14.4401 22.1173 14.2093 22.24 14C22.4179 13.6918 22.6748 13.4367 22.9841 13.2609C23.2935 13.0851 23.6442 12.9951 24 13H40C40.3507 13.0004 40.6952 13.093 40.9988 13.2685C41.3025 13.444 41.5546 13.6963 41.73 14C41.8527 14.2093 41.9341 14.4401 41.97 14.68C41.9903 14.7855 42.0004 14.8926 42 15V16.64C41.9916 17.4254 42.1393 18.2047 42.4346 18.9326C42.7299 19.6605 43.1668 20.3224 43.72 20.88C43.7616 20.9256 43.8086 20.9659 43.86 21C43.9267 21.0773 44.0042 21.1447 44.09 21.2C44.3281 21.3993 44.5862 21.5736 44.86 21.72C45.7988 22.2289 46.5847 22.9792 47.1367 23.8933C47.6887 24.8074 47.9867 25.8523 48 26.92Z" fill="#BD7F00"/>
<path d="M25.5 31C26.3284 31 27 30.3284 27 29.5C27 28.6716 26.3284 28 25.5 28C24.6716 28 24 28.6716 24 29.5C24 30.3284 24.6716 31 25.5 31Z" fill="#2D2D2D"/>
<path d="M38.5 31C39.3284 31 40 30.3284 40 29.5C40 28.6716 39.3284 28 38.5 28C37.6716 28 37 28.6716 37 29.5C37 30.3284 37.6716 31 38.5 31Z" fill="#2D2D2D"/>
<path d="M22.27 14C22.1473 14.2093 22.0659 14.4401 22.03 14.68C22.0097 14.7854 21.9996 14.8926 22 15V16.64C22.0084 17.4254 21.8607 18.2047 21.5654 18.9326C21.2701 19.6604 20.8332 20.3224 20.28 20.88C20.2384 20.9256 20.1914 20.9659 20.14 21H14C12.5695 21.0068 11.1721 20.5701 10 19.75C9.64378 19.5133 9.30915 19.2456 9 18.95C7.70559 17.629 6.98657 15.8494 7 14V7L9.39 11.79C9.72481 12.4591 10.2406 13.021 10.8787 13.4116C11.5169 13.8023 12.2518 14.0061 13 14H22.27ZM57 7V14C57.0132 14.9242 56.8433 15.8418 56.5001 16.7C56.1568 17.5582 55.647 18.3399 55 19C54.6908 19.2956 54.3562 19.5633 54 19.8C52.8221 20.6024 51.4251 21.0215 50 21H43.86C43.8086 20.9659 43.7616 20.9256 43.72 20.88C43.1668 20.3224 42.7299 19.6604 42.4346 18.9326C42.1393 18.2047 41.9916 17.4254 42 16.64V15C42.0103 14.8936 42.0103 14.7864 42 14.68C41.9641 14.4401 41.8827 14.2093 41.76 14H51C51.7431 14.0005 52.4717 13.794 53.104 13.4037C53.7364 13.0133 54.2475 12.4546 54.58 11.79L57 7Z" fill="#434347"/>
<path d="M27.5 53C28.3284 53 29 52.3284 29 51.5C29 50.6716 28.3284 50 27.5 50C26.6716 50 26 50.6716 26 51.5C26 52.3284 26.6716 53 27.5 53Z" fill="#434347"/>
<path d="M36.5 53C37.3284 53 38 52.3284 38 51.5C38 50.6716 37.3284 50 36.5 50C35.6716 50 35 50.6716 35 51.5C35 52.3284 35.6716 53 36.5 53Z" fill="#434347"/>
</svg>

<svg xmlns="http://www.w3.org/2000/svg" viewBox="0 0 64 64"><path fill="#646467" d="M57 26v2H52a7.85 7.85 0 0 1-4-1.08 6 6 0 0 0-3.14-5.2 4.52 4.52 0 0 1-.77-.52 1.07 1.07 0 0 1-.23-.2H50a6.92 6.92 0 0 0 4-1.25A8 8 0 0 1 57 26zM20.14 21a1.07 1.07 0 0 1-.23.2 4.52 4.52 0 0 1-.77.52A6 6 0 0 0 16 26.92 7.85 7.85 0 0 1 12 28H7V26a8 8 0 0 1 3-6.25A6.92 6.92 0 0 0 14 21zM44 51a5.94 5.94 0 0 1-1.76 4.24 5.75 5.75 0 0 1-1.24.95A5.86 5.86 0 0 1 38 57H26a5.86 5.86 0 0 1-3-.81 6 6 0 0 1-1.24-9.43A5.69 5.69 0 0 1 23 45.81 5.89 5.89 0 0 1 26 45H38a5.89 5.89 0 0 1 3 .81A6 6 0 0 1 44 51z"/><path fill="#87868a" d="M48,26.92v7.55a6,6,0,0,1-3.24,5.32,7.31,7.31,0,0,0-.76.46V51a6,6,0,0,0-3-5.19A5.89,5.89,0,0,0,38,45H26a5.89,5.89,0,0,0-3,.81,5.69,5.69,0,0,0-1.23.95A5.94,5.94,0,0,0,20,51V40.25a7.31,7.31,0,0,0-.76-.46A6,6,0,0,1,16,34.47V26.92a6,6,0,0,1,3.14-5.2,4.52,4.52,0,0,0,.77-.52,1.07,1.07,0,0,0,.23-.2.75.75,0,0,0,.14-.12A5.93,5.93,0,0,0,22,16.64V15a1.66,1.66,0,0,1,0-.32,1.9,1.9,0,0,1,.24-.68A2,2,0,0,1,24,13H40a2,2,0,0,1,1.73,1,1.9,1.9,0,0,1,.24.68A1.66,1.66,0,0,1,42,15v1.64a5.93,5.93,0,0,0,1.72,4.24.75.75,0,0,0,.14.12,1.07,1.07,0,0,0,.23.2,4.52,4.52,0,0,0,.77.52A6,6,0,0,1,48,26.92Z"/><circle cx="25.5" cy="29.5" r="1.5" fill="#2d2d2d"/><circle cx="38.5" cy="29.5" r="1.5" fill="#2d2d2d"/><path fill="#434347" d="M22.27 14a1.9 1.9 0 0 0-.24.68A1.66 1.66 0 0 0 22 15v1.64a5.93 5.93 0 0 1-1.72 4.24.75.75 0 0 1-.14.12H14a6.92 6.92 0 0 1-4-1.25 7.27 7.27 0 0 1-1-.8A7 7 0 0 1 7 14V7l2.39 4.79A4 4 0 0 0 13 14zM57 7v7A7 7 0 0 1 55 19a7.27 7.27 0 0 1-1 .8A6.92 6.92 0 0 1 50 21H43.86a.75.75 0 0 1-.14-.12A5.93 5.93 0 0 1 42 16.64V15a1.66 1.66 0 0 0 0-.32 1.9 1.9 0 0 0-.24-.68H51a4 4 0 0 0 3.58-2.21z"/><circle cx="27.5" cy="51.5" r="1.5" fill="#434347"/><circle cx="36.5" cy="51.5" r="1.5" fill="#434347"/></svg>
